; generated by PrusaSlicer 2.9.4 on 2026-07-14 at 09:42:03 UTC


;
;
; 

; external perimeters extrusion width = 0.45mm
; perimeters extrusion width = 0.45mm
; infill extrusion width = 0.45mm
; solid infill extrusion width = 0.45mm
; top infill extrusion width = 0.40mm
; first layer extrusion width = 0.42mm

M73 P0 R100
M73 Q0 S101
M201 X1000 Y1000 Z200 E5000 ; sets maximum accelerations, mm/sec^2
M203 X200 Y200 Z12 E120 ; sets maximum feedrates, mm / sec
M204 S1250 T1250 ; sets acceleration (S) and retract acceleration (R), mm/sec^2
M205 X8.00 Y8.00 Z0.40 E4.50 ; sets the jerk limits, mm/sec
M205 S0 T0 ; sets the minimum extruding and travel feed rate, mm/sec

; printing object Projet_Programmateur_ATtiny_Coffret.stl id:0 copy 0
; stop printing object Projet_Programmateur_ATtiny_Coffret.stl id:0 copy 0

;TYPE:Custom
M862.3 P "MK3S" ; printer model check
M862.1 P0.4 ; nozzle diameter check
M115 U3.14.1 ; tell printer latest fw version
G90 ; use absolute coordinates
M83 ; extruder relative mode
M104 S215 ; set extruder temp
M140 S60 ; set bed temp
M190 S60 ; wait for bed temp
M109 S215 ; wait for extruder temp
G28 W ; home all without mesh bed level
G80 X73.6229 Y67.6229 W102.754 H74.7542 ; mesh bed levelling

G1 Z0.2 F720
G1 Y-3 F1000 ; go outside print area
G92 E0
G1 X60 E9 F1000 ; intro line
G1 X100 E12.5 F1000 ; intro line

G92 E0
M221 S95

; Don't change E values below. Excessive value can damage the printer.
M907 E430 ; set extruder motor current
G21 ; set units to millimeters
G90 ; use absolute coordinates
M83 ; use relative distances for extrusion

M900 K0.05 ; Filament gcode LA 1.5
M900 K30 ; Filament gcode LA 1.0




M107
;LAYER_CHANGE
;Z:0.2
;HEIGHT:0.2
G1 E-.8 F2100
G1 Z.6 F720
G1 X74.202 Y68.752 F10800
G1 Z.2 F720
G1 E.8 F2100
M204 S800
;TYPE:Skirt/Brim
;WIDTH:0.42
G1 F1200
G1 X75.235 Y67.949 E.04102
G1 X76 Y67.811 E.02437
G1 X174 Y67.811 E3.07272
G1 X175.248 Y68.202 E.04101
G1 X176.051 Y69.235 E.04102
G1 X176.189 Y70 E.02437
G1 X176.189 Y140 E2.1948
G1 X175.798 Y141.248 E.04101
G1 X174.765 Y142.051 E.04102
G1 X174 Y142.189 E.02437
G1 X76 Y142.189 E3.07272
G1 X74.752 Y141.798 E.04101
G1 X73.949 Y140.765 E.04102
G1 X73.811 Y140 E.02437
G1 X73.811 Y70 E2.1948
G1 X74.184 Y68.809 E.03913
M204 S1000
;WIPE_START
G1 F8640
G1 X74.202 Y68.752 E-.0138
G1 X75.235 Y67.949 E-.30211
G1 X76 Y67.811 E-.17949
G1 X77.319 Y67.811 E-.3046
;WIPE_END
G1 Z.6 F720
; printing object Projet_Programmateur_ATtiny_Coffret.stl id:0 copy 0
G1 X173.213 Y70.787 F10800
G1 Z.2 F720
G1 E.8 F2100
M204 S800
;TYPE:Perimeter
;WIDTH:0.419999
G1 F1200
G1 X173.213 Y139.213 E2.14545
G1 X76.787 Y139.213 E3.02336
G1 X76.787 Y70.787 E2.14545
M73 Q0 S100
G1 X173.153 Y70.787 E3.02148
M204 S1000
G1 X173.59 Y70.41 F10800
M204 S800
;TYPE:External perimeter
G1 F1200
G1 X173.59 Y139.59 E2.16909
G1 X76.41 Y139.59 E3.04701
M73 P0 R99
G1 X76.41 Y70.41 E2.16909
G1 X173.53 Y70.41 E3.04512
M204 S1000
;WIPE_START
G1 F8640
G1 X173.59 Y70.41 E-.01385
G1 X173.59 Y73.815 E-.78615
;WIPE_END
G1 Z.6 F720
G1 X173.062 Y71.701 F10800
G1 Z.2 F720
G1 E.8 F2100
M204 S800
;TYPE:Solid infill
;WIDTH:0.420174
G1 F1200
G1 X172.469 Y71.108 E.02631
G1 X171.936 Y71.108 E.01672
G1 X172.892 Y72.064 E.04241
G1 X172.892 Y72.598 E.01675
G1 X171.402 Y71.108 E.0661
G1 X170.869 Y71.108 E.01672
G1 X172.892 Y73.131 E.08974
G1 X172.892 Y73.665 E.01675
G1 X170.335 Y71.108 E.11343
G1 X169.802 Y71.108 E.01672
G1 X172.892 Y74.198 E.13708
G1 X172.892 Y74.732 E.01675
G1 X169.268 Y71.108 E.16077
G1 X168.735 Y71.108 E.01672
M73 P1 R99
M73 Q1 S100
G1 X172.892 Y75.265 E.18441
G1 X172.892 Y75.799 E.01675
G1 X168.201 Y71.108 E.2081
G1 X167.667 Y71.108 E.01675
G1 X172.892 Y76.333 E.23179
G1 X172.892 Y76.866 E.01672
G1 X167.134 Y71.108 E.25544
G1 X166.6 Y71.108 E.01675
G1 X172.892 Y77.4 E.27913
G1 X172.892 Y77.933 E.01672
G1 X166.067 Y71.108 E.30277
G1 X165.533 Y71.108 E.01675
G1 X172.892 Y78.467 E.32646
G1 X172.892 Y79 E.01672
G1 X165 Y71.108 E.35011
G1 X164.466 Y71.108 E.01675
G1 X172.892 Y79.534 E.3738
G1 X172.892 Y80.067 E.01672
G1 X163.933 Y71.108 E.39744
G1 X163.399 Y71.108 E.01675
G1 X172.892 Y80.601 E.42113
G1 X172.892 Y81.134 E.01672
G1 X162.866 Y71.108 E.44478
G1 X162.332 Y71.108 E.01675
G1 X172.892 Y81.668 E.46846
G1 X172.892 Y82.201 E.01672
G1 X161.799 Y71.108 E.49211
G1 X161.265 Y71.108 E.01675
G1 X172.892 Y82.735 E.5158
G1 X172.892 Y83.268 E.01672
G1 X160.732 Y71.108 E.53944
G1 X160.198 Y71.108 E.01675
G1 X172.892 Y83.802 E.56313
G1 X172.892 Y84.335 E.01672
G1 X159.665 Y71.108 E.58678
G1 X159.131 Y71.108 E.01675
G1 X172.892 Y84.869 E.61047
G1 X172.892 Y85.402 E.01672
G1 X158.598 Y71.108 E.63411
G1 X158.064 Y71.108 E.01675
G1 X172.892 Y85.936 E.6578
G1 X172.892 Y86.469 E.01672
G1 X157.531 Y71.108 E.68145
G1 X156.997 Y71.108 E.01675
G1 X172.892 Y87.003 E.70514
G1 X172.892 Y87.536 E.01672
G1 X156.464 Y71.108 E.72878
G1 X155.93 Y71.108 E.01675
G1 X172.892 Y88.07 E.75247
G1 X172.892 Y88.603 E.01672
G1 X155.397 Y71.108 E.77612
G1 X154.863 Y71.108 E.01675
G1 X172.892 Y89.137 E.79981
G1 X172.892 Y89.67 E.01672
G1 X154.33 Y71.108 E.82345
G1 X153.796 Y71.108 E.01675
G1 X172.892 Y90.204 E.84714
G1 X172.892 Y90.738 E.01675
G1 X153.262 Y71.108 E.87083
G1 X152.729 Y71.108 E.01672
G1 X172.892 Y91.271 E.89447
G1 X172.892 Y91.805 E.01675
G1 X152.195 Y71.108 E.91816
G1 X151.662 Y71.108 E.01672
G1 X172.892 Y92.338 E.94181
G1 X172.892 Y92.872 E.01675
M73 Q1 S99
G1 X151.128 Y71.108 E.9655
G1 X150.595 Y71.108 E.01672
G1 X172.892 Y93.405 E.98914
G1 X172.892 Y93.939 E.01675
G1 X150.061 Y71.108 E1.01283
G1 X149.528 Y71.108 E.01672
G1 X172.892 Y94.472 E1.03648
G1 X172.892 Y95.006 E.01675
G1 X148.994 Y71.108 E1.06017
G1 X148.461 Y71.108 E.01672
G1 X172.892 Y95.539 E1.08381
G1 X172.892 Y96.073 E.01675
G1 X147.927 Y71.108 E1.1075
G1 X147.394 Y71.108 E.01672
M73 P1 R98
G1 X172.892 Y96.606 E1.13115
G1 X172.892 Y97.14 E.01675
G1 X146.86 Y71.108 E1.15484
G1 X146.327 Y71.108 E.01672
G1 X172.892 Y97.673 E1.17848
G1 X172.892 Y98.207 E.01675
G1 X145.793 Y71.108 E1.20217
G1 X145.26 Y71.108 E.01672
G1 X172.892 Y98.74 E1.22582
G1 X172.892 Y99.274 E.01675
G1 X144.726 Y71.108 E1.24951
G1 X144.193 Y71.108 E.01672
G1 X172.892 Y99.807 E1.27315
G1 X172.892 Y100.341 E.01675
G1 X143.659 Y71.108 E1.29684
G1 X143.126 Y71.108 E.01672
G1 X172.892 Y100.874 E1.32048
G1 X172.892 Y101.408 E.01675
M73 P2 R98
G1 X142.592 Y71.108 E1.34417
G1 X142.059 Y71.108 E.01672
M73 Q2 S99
G1 X172.892 Y101.941 E1.36782
G1 X172.892 Y102.475 E.01675
G1 X141.525 Y71.108 E1.39151
G1 X140.992 Y71.108 E.01672
G1 X172.892 Y103.008 E1.41515
G1 X172.892 Y103.542 E.01675
G1 X140.458 Y71.108 E1.43884
G1 X139.925 Y71.108 E.01672
G1 X172.892 Y104.075 E1.46249
G1 X172.892 Y104.609 E.01675
G1 X139.391 Y71.108 E1.48618
G1 X138.858 Y71.108 E.01672
G1 X172.892 Y105.142 E1.50982
G1 X172.892 Y105.676 E.01675
G1 X138.324 Y71.108 E1.53351
G1 X137.79 Y71.108 E.01675
G1 X172.892 Y106.21 E1.5572
G1 X172.892 Y106.743 E.01672
G1 X137.257 Y71.108 E1.58085
G1 X136.723 Y71.108 E.01675
G1 X172.892 Y107.277 E1.60454
G1 X172.892 Y107.81 E.01672
G1 X136.19 Y71.108 E1.62818
G1 X135.656 Y71.108 E.01675
M73 Q2 S98
G1 X172.892 Y108.344 E1.65187
G1 X172.892 Y108.877 E.01672
G1 X135.123 Y71.108 E1.67552
G1 X134.589 Y71.108 E.01675
G1 X172.892 Y109.411 E1.6992
G1 X172.892 Y109.944 E.01672
G1 X134.056 Y71.108 E1.72285
G1 X133.522 Y71.108 E.01675
M73 P2 R97
G1 X172.892 Y110.478 E1.74654
G1 X172.892 Y111.011 E.01672
G1 X132.989 Y71.108 E1.77018
G1 X132.455 Y71.108 E.01675
G1 X172.892 Y111.545 E1.79387
G1 X172.892 Y112.078 E.01672
G1 X131.922 Y71.108 E1.81752
G1 X131.388 Y71.108 E.01675
G1 X172.892 Y112.612 E1.84121
G1 X172.892 Y113.145 E.01672
G1 X130.855 Y71.108 E1.86485
G1 X130.321 Y71.108 E.01675
G1 X172.892 Y113.679 E1.88854
G1 X172.892 Y114.212 E.01672
M73 P3 R97
M73 Q3 S98
G1 X129.788 Y71.108 E1.91219
G1 X129.254 Y71.108 E.01675
G1 X172.892 Y114.746 E1.93588
G1 X172.892 Y115.279 E.01672
G1 X128.721 Y71.108 E1.95952
G1 X128.187 Y71.108 E.01675
G1 X172.892 Y115.813 E1.98321
G1 X172.892 Y116.346 E.01672
G1 X127.654 Y71.108 E2.00686
G1 X127.12 Y71.108 E.01675
G1 X172.892 Y116.88 E2.03055
G1 X172.892 Y117.413 E.01672
G1 X126.587 Y71.108 E2.05419
G1 X126.053 Y71.108 E.01675
G1 X172.892 Y117.947 E2.07788
G1 X172.892 Y118.48 E.01672
G1 X125.52 Y71.108 E2.10153
G1 X124.986 Y71.108 E.01675
M73 Q3 S97
G1 X172.892 Y119.014 E2.12521
G1 X172.892 Y119.547 E.01672
G1 X124.453 Y71.108 E2.14886
G1 X123.919 Y71.108 E.01675
G1 X172.892 Y120.081 E2.17255
G1 X172.892 Y120.614 E.01672
M73 P3 R96
G1 X123.386 Y71.108 E2.19619
G1 X122.852 Y71.108 E.01675
G1 X172.892 Y121.148 E2.21988
G1 X172.892 Y121.682 E.01675
G1 X122.318 Y71.108 E2.24357
G1 X121.785 Y71.108 E.01672
G1 X172.892 Y122.215 E2.26722
G1 X172.892 Y122.749 E.01675
G1 X121.251 Y71.108 E2.29091
G1 X120.718 Y71.108 E.01672
G1 X172.892 Y123.282 E2.31455
G1 X172.892 Y123.816 E.01675
M73 P4 R96
M73 Q4 S97
G1 X120.184 Y71.108 E2.33824
G1 X119.651 Y71.108 E.01672
G1 X172.892 Y124.349 E2.36189
G1 X172.892 Y124.883 E.01675
G1 X119.117 Y71.108 E2.38558
G1 X118.584 Y71.108 E.01672
G1 X172.892 Y125.416 E2.40922
G1 X172.892 Y125.95 E.01675
G1 X118.05 Y71.108 E2.43291
G1 X117.517 Y71.108 E.01672
G1 X172.892 Y126.483 E2.45656
G1 X172.892 Y127.017 E.01675
G1 X116.983 Y71.108 E2.48025
G1 X116.45 Y71.108 E.01672
M73 Q4 S96
G1 X172.892 Y127.55 E2.50389
G1 X172.892 Y128.084 E.01675
G1 X115.916 Y71.108 E2.52758
G1 X115.383 Y71.108 E.01672
G1 X172.892 Y128.617 E2.55122
G1 X172.892 Y129.151 E.01675
M73 P4 R95
G1 X114.849 Y71.108 E2.57491
G1 X114.316 Y71.108 E.01672
G1 X172.892 Y129.684 E2.59856
G1 X172.892 Y130.218 E.01675
G1 X113.782 Y71.108 E2.62225
G1 X113.249 Y71.108 E.01672
G1 X172.892 Y130.751 E2.64589
G1 X172.892 Y131.285 E.01675
G1 X112.715 Y71.108 E2.66958
G1 X112.182 Y71.108 E.01672
M73 P5 R95
M73 Q5 S96
G1 X172.892 Y131.818 E2.69323
G1 X172.892 Y132.352 E.01675
G1 X111.648 Y71.108 E2.71692
G1 X111.115 Y71.108 E.01672
G1 X172.892 Y132.885 E2.74056
G1 X172.892 Y133.419 E.01675
G1 X110.581 Y71.108 E2.76425
G1 X110.048 Y71.108 E.01672
G1 X172.892 Y133.952 E2.7879
G1 X172.892 Y134.486 E.01675
G1 X109.514 Y71.108 E2.81159
G1 X108.981 Y71.108 E.01672
M73 Q5 S95
G1 X172.892 Y135.019 E2.83523
G1 X172.892 Y135.553 E.01675
G1 X108.447 Y71.108 E2.85892
G1 X107.913 Y71.108 E.01675
G1 X172.892 Y136.087 E2.88261
G1 X172.892 Y136.62 E.01672
M73 P5 R94
G1 X107.38 Y71.108 E2.90626
G1 X106.846 Y71.108 E.01675
G1 X172.892 Y137.154 E2.92994
G1 X172.892 Y137.687 E.01672
G1 X106.313 Y71.108 E2.95359
G1 X105.779 Y71.108 E.01675
G1 X172.892 Y138.221 E2.97728
G1 X172.892 Y138.754 E.01672
M73 P6 R94
M73 Q6 S95
G1 X105.246 Y71.108 E3.00092
G1 X104.712 Y71.108 E.01675
G1 X172.497 Y138.892 E3.00707
G1 X171.964 Y138.892 E.01672
G1 X104.179 Y71.108 E3.00707
G1 X103.645 Y71.108 E.01675
G1 X171.43 Y138.892 E3.00707
G1 X170.897 Y138.892 E.01672
G1 X103.112 Y71.108 E3.00707
G1 X102.578 Y71.108 E.01675
G1 X170.363 Y138.892 E3.00707
G1 X169.83 Y138.892 E.01672
M73 Q6 S94
G1 X102.045 Y71.108 E3.00707
G1 X101.511 Y71.108 E.01675
G1 X169.296 Y138.892 E3.00707
G1 X168.763 Y138.892 E.01672
M73 P6 R93
G1 X100.978 Y71.108 E3.00707
G1 X100.444 Y71.108 E.01675
G1 X168.229 Y138.892 E3.00707
G1 X167.696 Y138.892 E.01672
G1 X99.911 Y71.108 E3.00707
G1 X99.377 Y71.108 E.01675
G1 X167.162 Y138.892 E3.00707
G1 X166.629 Y138.892 E.01672
M73 P7 R93
G1 X98.844 Y71.108 E3.00707
G1 X98.31 Y71.108 E.01675
M73 Q7 S94
G1 X166.095 Y138.892 E3.00707
G1 X165.561 Y138.892 E.01675
G1 X97.777 Y71.108 E3.00705
G1 X97.243 Y71.108 E.01675
G1 X165.028 Y138.892 E3.00707
G1 X164.494 Y138.892 E.01675
G1 X96.71 Y71.108 E3.00705
G1 X96.176 Y71.108 E.01675
G1 X163.961 Y138.892 E3.00707
G1 X163.427 Y138.892 E.01675
M73 Q7 S93
G1 X95.643 Y71.108 E3.00705
G1 X95.109 Y71.108 E.01675
G1 X162.894 Y138.892 E3.00707
G1 X162.36 Y138.892 E.01675
G1 X94.576 Y71.108 E3.00705
G1 X94.042 Y71.108 E.01675
M73 P7 R92
G1 X161.827 Y138.892 E3.00707
G1 X161.293 Y138.892 E.01675
G1 X93.509 Y71.108 E3.00705
G1 X92.975 Y71.108 E.01675
G1 X160.76 Y138.892 E3.00707
G1 X160.226 Y138.892 E.01675
G1 X92.441 Y71.108 E3.00707
G1 X91.908 Y71.108 E.01672
M73 P8 R92
G1 X159.693 Y138.892 E3.00707
G1 X159.159 Y138.892 E.01675
M73 Q8 S93
G1 X91.374 Y71.108 E3.00707
G1 X90.841 Y71.108 E.01672
G1 X158.626 Y138.892 E3.00707
G1 X158.092 Y138.892 E.01675
G1 X90.307 Y71.108 E3.00707
G1 X89.774 Y71.108 E.01672
G1 X157.559 Y138.892 E3.00707
G1 X157.025 Y138.892 E.01675
G1 X89.24 Y71.108 E3.00707
G1 X88.707 Y71.108 E.01672
M73 Q8 S92
G1 X156.492 Y138.892 E3.00707
G1 X155.958 Y138.892 E.01675
G1 X88.173 Y71.108 E3.00707
G1 X87.64 Y71.108 E.01672
M73 P8 R91
G1 X155.425 Y138.892 E3.00707
G1 X154.891 Y138.892 E.01675
G1 X87.106 Y71.108 E3.00707
G1 X86.573 Y71.108 E.01672
G1 X154.358 Y138.892 E3.00707
G1 X153.824 Y138.892 E.01675
G1 X86.039 Y71.108 E3.00707
G1 X85.506 Y71.108 E.01672
M73 P9 R91
G1 X153.291 Y138.892 E3.00707
G1 X152.757 Y138.892 E.01675
M73 Q9 S92
G1 X84.972 Y71.108 E3.00707
G1 X84.439 Y71.108 E.01672
G1 X152.224 Y138.892 E3.00707
G1 X151.69 Y138.892 E.01675
G1 X83.905 Y71.108 E3.00707
G1 X83.372 Y71.108 E.01672
G1 X151.156 Y138.892 E3.00705
G1 X150.623 Y138.892 E.01672
G1 X82.838 Y71.108 E3.00707
G1 X82.305 Y71.108 E.01672
M73 Q9 S91
G1 X150.089 Y138.892 E3.00705
G1 X149.556 Y138.892 E.01672
G1 X81.771 Y71.108 E3.00707
G1 X81.238 Y71.108 E.01672
M73 P9 R90
G1 X149.022 Y138.892 E3.00705
G1 X148.489 Y138.892 E.01672
G1 X80.704 Y71.108 E3.00707
G1 X80.171 Y71.108 E.01672
G1 X147.955 Y138.892 E3.00705
G1 X147.422 Y138.892 E.01672
G1 X79.637 Y71.108 E3.00707
G1 X79.104 Y71.108 E.01672
G1 X146.888 Y138.892 E3.00705
G1 X146.355 Y138.892 E.01672
M73 P10 R90
G1 X78.57 Y71.108 E3.00707
G1 X78.037 Y71.108 E.01672
M73 Q10 S91
G1 X145.821 Y138.892 E3.00705
G1 X145.288 Y138.892 E.01672
G1 X77.503 Y71.108 E3.00707
G1 X77.108 Y71.108 E.01239
G1 X77.108 Y71.246 E.00433
G1 X144.754 Y138.892 E3.00092
G1 X144.221 Y138.892 E.01672
G1 X77.108 Y71.779 E2.97728
G1 X77.108 Y72.313 E.01675
G1 X143.687 Y138.892 E2.95359
G1 X143.154 Y138.892 E.01672
M73 Q10 S90
G1 X77.108 Y72.846 E2.92994
G1 X77.108 Y73.38 E.01675
G1 X142.62 Y138.892 E2.90626
G1 X142.087 Y138.892 E.01672
M73 P10 R89
G1 X77.108 Y73.913 E2.88261
G1 X77.108 Y74.447 E.01675
G1 X141.553 Y138.892 E2.85892
G1 X141.02 Y138.892 E.01672
G1 X77.108 Y74.98 E2.83528
G1 X77.108 Y75.514 E.01675
G1 X140.486 Y138.892 E2.81159
G1 X139.953 Y138.892 E.01672
G1 X77.108 Y76.047 E2.78794
G1 X77.108 Y76.581 E.01675
M73 P11 R89
G1 X139.419 Y138.892 E2.76425
G1 X138.886 Y138.892 E.01672
M73 Q11 S90
G1 X77.108 Y77.114 E2.74061
G1 X77.108 Y77.648 E.01675
G1 X138.352 Y138.892 E2.71692
G1 X137.819 Y138.892 E.01672
G1 X77.108 Y78.181 E2.69327
G1 X77.108 Y78.715 E.01675
G1 X137.285 Y138.892 E2.66958
G1 X136.752 Y138.892 E.01672
G1 X77.108 Y79.248 E2.64594
G1 X77.108 Y79.782 E.01675
M73 Q11 S89
G1 X136.218 Y138.892 E2.62225
G1 X135.684 Y138.892 E.01675
G1 X77.108 Y80.316 E2.59856
G1 X77.108 Y80.849 E.01672
G1 X135.151 Y138.892 E2.57491
G1 X134.617 Y138.892 E.01675
M73 P11 R88
G1 X77.108 Y81.383 E2.55122
G1 X77.108 Y81.916 E.01672
G1 X134.084 Y138.892 E2.52758
G1 X133.55 Y138.892 E.01675
G1 X77.108 Y82.45 E2.50389
G1 X77.108 Y82.983 E.01672
G1 X133.017 Y138.892 E2.48025
G1 X132.483 Y138.892 E.01675
G1 X77.108 Y83.517 E2.45656
G1 X77.108 Y84.05 E.01672
M73 P12 R88
G1 X131.95 Y138.892 E2.43291
G1 X131.416 Y138.892 E.01675
M73 Q12 S89
G1 X77.108 Y84.584 E2.40922
G1 X77.108 Y85.117 E.01672
G1 X130.883 Y138.892 E2.38558
G1 X130.349 Y138.892 E.01675
G1 X77.108 Y85.651 E2.36189
G1 X77.108 Y86.184 E.01672
G1 X129.816 Y138.892 E2.33824
G1 X129.282 Y138.892 E.01675
G1 X77.108 Y86.718 E2.31455
G1 X77.108 Y87.251 E.01672
G1 X128.749 Y138.892 E2.29091
G1 X128.215 Y138.892 E.01675
M73 Q12 S88
G1 X77.108 Y87.785 E2.26722
G1 X77.108 Y88.318 E.01672
G1 X127.682 Y138.892 E2.24357
G1 X127.148 Y138.892 E.01675
G1 X77.108 Y88.852 E2.21988
G1 X77.108 Y89.385 E.01672
M73 P12 R87
G1 X126.615 Y138.892 E2.19624
G1 X126.081 Y138.892 E.01675
G1 X77.108 Y89.919 E2.17255
G1 X77.108 Y90.452 E.01672
G1 X125.548 Y138.892 E2.1489
G1 X125.014 Y138.892 E.01675
G1 X77.108 Y90.986 E2.12521
